src/actions/16/run-build-install.svg

<svg xmlns="http://www.w3.org/2000/svg" viewBox="0 0 16 16">
  <defs id="defs3051">
    <style type="text/css" id="current-color-scheme">
      .ColorScheme-Text {
        color:#2e3440;
      }
      </style>
  </defs>
 <path 
     style="fill:currentColor;fill-opacity:1;stroke:none" 
     d="M 7 2 L 7 3.1015625 C 6.374 3.2305625 5.7790937 3.4790312 5.2460938 3.8320312 L 4.4648438 3.0507812 L 3.0507812 4.4648438 L 3.8320312 5.2460938 C 3.4800313 5.7790937 3.2334687 6.374 3.1054688 7 L 2 7 L 2 9 L 3.1015625 9 C 3.2305625 9.626 3.4790312 10.220906 3.8320312 10.753906 L 3.0507812 11.535156 L 4.4648438 12.949219 L 5.2460938 12.167969 C 5.7790938 12.519969 6.374 12.766531 7 12.894531 L 7 14 L 8 14 L 8 12 C 6.919 12 5.8838594 11.562109 5.1308594 10.787109 C 4.4058594 10.040109 4 9.041 4 8 C 4 6.919 4.4378906 5.8838594 5.2128906 5.1308594 C 5.9598906 4.4058594 6.959 4 8 4 C 9.081 4 10.116141 4.4378906 10.869141 5.2128906 C 11.594141 5.9598906 12 6.959 12 8 L 14 8 L 14 7 L 12.898438 7 C 12.769438 6.374 12.520969 5.7790937 12.167969 5.2460938 L 12.949219 4.4648438 L 11.535156 3.0507812 L 10.753906 3.8320312 C 10.220906 3.4800313 9.626 3.2334687 9 3.1054688 L 9 2 L 7 2 z M 7 6 L 7 10 L 10 8 L 7 6 z M 11 9 L 11 13.085938 L 9.3789062 11.464844 L 8.671875 12.171875 L 11.5 15 L 13.378906 13.121094 L 14.328125 12.171875 L 13.621094 11.464844 L 12 13.085938 L 12 9 L 11 9 z "
     class="ColorScheme-Text"/>
</svg>

<svg viewBox="0 0 16 16" xmlns="http://www.w3.org/2000/svg">
 <defs>
  <style type="text/css">.ColorScheme-Text {
        color:#2e3440;
      }</style>
 </defs>
 <path class="ColorScheme-Text" d="m7 2v1.1016c-0.626 0.129-1.2209 0.37747-1.7539 0.73047l-0.78125-0.78125-1.4141 1.4141 0.78125 0.78125c-0.352 0.533-0.59856 1.1279-0.72656 1.7539h-1.1055v2h1.1016c0.129 0.626 0.37747 1.2209 0.73047 1.7539l-0.78125 0.78125 1.4141 1.4141 0.78125-0.78125c0.533 0.352 1.1279 0.59856 1.7539 0.72656v1.1055h1v-2c-1.081 0-2.1161-0.43789-2.8691-1.2129-0.725-0.747-1.1309-1.7461-1.1309-2.7871 0-1.081 0.43789-2.1161 1.2129-2.8691 0.747-0.725 1.7461-1.1309 2.7871-1.1309 1.081 0 2.1161 0.43789 2.8691 1.2129 0.725 0.747 1.1309 1.7461 1.1309 2.7871h2v-1h-1.1016c-0.129-0.626-0.37747-1.2209-0.73047-1.7539l0.78125-0.78125-1.4141-1.4141-0.78125 0.78125c-0.533-0.352-1.1279-0.59856-1.7539-0.72656v-1.1055h-2zm0 4v4l3-2-3-2zm4 3v4.0859l-1.6211-1.6211-0.70703 0.70703 2.8281 2.8281 2.8281-2.8281-0.70703-0.70703-1.6211 1.6211v-4.0859h-1z" fill="currentColor"/>
</svg>
